X: 1
T:Isle of Hoy
M:C
L:1/8
Q:80
C:Glenna Mackay
S:Strathspey
K:HP
|: {g}B/2e3/2{A}e3/2f/2{a}g/2f/2e/2d/2{g}B2|
{g}A/2d3/2{G}d3/2e/2{g}f3/2d/2{ag}a2|
B/2e3/2{A}e3/2f/2{a}g/2f/2e/2d/2{g}B3/2g/2|  !
{a}f3/2d/2{gef}e3/2d/2{g}B/2e3/2{A}e:| [|
f|
{gf}g2{GdG}((3g3/2e/2{g}fga){fg}f2|
{a}((3gfe){gf}g3/2e/2{g}f3/2e/2{Gdc}d3/2f/2|  !
{gf}g2{GdG}g3/2e/2{g}f3/2g/2{ag}a2|
{f}g3/2e/2{g}f3/2d/2{g}B/2e3/2{A}e3/2f/2{gf}g2{GdG}((3g3/2e/2{g}fga){fg}
f2|
{a}((3gfe){gf}g3/2e/2{g}f3/2e/2{Gdc}d3/2A/2|  !
B/2e3/2{A}e3/2f/2{a}g/2f/2e/2d/2{g}B3/2g/2|
{a}f3/2d/2{gef}e3/2d/2{g}B/2e3/2{A}e2|]
